X:1
T:Manele Bay, 11.11.11.11
T:Walter E. Yoder, 1916
T:Manele Bay, 11.11.11.11
T:Public Domain
C:Walter E. Yoder, 1916
Z:Public Domain
%%score ( 1 2 ) ( 3 4 )
L:1/8
M:4/8
K:G
V:1 treble 
V:2 treble 
V:3 bass 
V:4 bass 
V:1
 [GB][Ac][Gd][GB] | [DG]2 [GB]2 | [Fc][GB]A[G^c] | [Fd]4 | [Gd][GB][Ac][FA] | [GB]2 [DG]2 | %6
 [FA][GB][Fd][Ac] | [GB]4 | [DG][DF]E[DF] | [EG]2 [GB]2 | [Gc][Fc][GB][FA] | [EG]4 | %12
 E[DF][DG][GB] | [Gd]2 [Gc]2 | [GB][DG][CE][CD] | [B,G]4 |] %16
V:2
 x4 | x4 | x2 A x | x4 | x4 | x4 | x4 | x4 | x2 E x | x4 | x4 | x4 | E x3 | x4 | x4 | x4 |] %16
V:3
 [G,D][G,D][G,B,][G,D] | [G,B,]2 [G,D]2 | [A,D][G,D][F,D][E,A,] | [D,A,]4 | [G,B,]G,[F,D][D,D] | %5
 [G,D]2 [G,B,]2 | [D,D][D,D][D,A,][F,D] | [G,D]4 | [G,B,][G,B,][G,B,][F,A,] | [E,B,]2 [E,E]2 | %10
 [C,E][D,D][E,^C][B,,^D] | [E,E]4 | [E,G,][D,A,][G,B,][G,D] | [C,E]2 [C,E]2 | %14
 [D,D][D,B,][D,F,][D,F,] | [G,,D,G,]4 |] %16
V:4
 x4 | x4 | x4 | x4 | x G, x2 | x4 | x4 | x4 | x4 | x4 | x4 | x4 | x4 | x4 | x4 | x4 |] %16

